comment.svg

<svg width="24" height="24" viewBox="0 0 24 24" fill="none" xmlns="http://www.w3.org/2000/svg">
<path fill-rule="evenodd" clip-rule="evenodd" d="M4.998 11.513C4.998 8.475 8.139 6.003 12 6.003C15.861 6.003 19.002 8.475 19.002 11.513C19.002 14.552 15.861 17.023 12 17.023C8.139 17.023 4.998 14.552 4.998 11.513ZM19.838 19.284V19.282C19.838 19.282 18.274 17.022 19.071 16.166L19.034 16.186C20.261 14.902 21 13.279 21 11.513C21 7.371 16.963 4 12 4C7.037 4 3 7.37 3 11.513C3 15.656 7.037 19.027 12 19.027C13.42 19.027 14.76 18.742 15.957 18.251C16.96 19.273 18.244 19.823 19.197 19.97L19.199 19.967C19.2515 19.9867 19.3069 19.9979 19.363 20C19.448 20 19.5317 19.9789 19.6067 19.9386C19.6816 19.8984 19.7453 19.8402 19.7923 19.7693C19.8392 19.6984 19.8679 19.6169 19.8757 19.5323C19.8835 19.4476 19.8702 19.3623 19.837 19.284H19.838Z" fill="#42526E"/>
<path d="M16 9H8C7.44772 9 7 9.44772 7 10C7 10.5523 7.44772 11 8 11H16C16.5523 11 17 10.5523 17 10C17 9.44772 16.5523 9 16 9Z" fill="#42526E"/>
<path d="M11 12H8C7.44772 12 7 12.4477 7 13C7 13.5523 7.44772 14 8 14H11C11.5523 14 12 13.5523 12 13C12 12.4477 11.5523 12 11 12Z" fill="#42526E"/>
</svg>

<svg width="24" height="24" viewBox="0 0 24 24"><g fill="currentColor" fill-rule="evenodd"><path d="M4.998 11.513c0-3.038 3.141-5.51 7.002-5.51 3.861 0 7.002 2.472 7.002 5.51 0 3.039-3.141 5.51-7.002 5.51-3.861 0-7.002-2.471-7.002-5.51zm14.84 7.771v-.002s-1.564-2.26-.767-3.116l-.037.02C20.261 14.902 21 13.279 21 11.513 21 7.371 16.963 4 12 4s-9 3.37-9 7.513 4.037 7.514 9 7.514c1.42 0 2.76-.285 3.957-.776 1.003 1.022 2.287 1.572 3.24 1.719l.002-.003a.524.524 0 0 0 .164.033.515.515 0 0 0 .474-.716z"/><rect x="7" y="9" width="10" height="2" rx="1"/><rect x="7" y="12" width="5" height="2" rx="1"/></g></svg>
